X: 10246
T: Doberman's Wallet, The
R: jig
M: 6/8
K: Amajor
|:e2 c BAB|cAA Ace|aba f2 e|cBB Bcd|
e2 c BAB|cAA Ace|aba f2 e|1 cAA Aaf:|2 cAA A2 e||
aba gfe|fga b2 a|gee fef|gee efg|
aba gfe|fga baf|e2 c BAB|cAA Ace|
aba gfe|fga b2 a|gee fef|gee eab|
c'ba gfe|fga ecA|dfa ec'b|aec Bcd||

